X:1
T:9 Lieder and Songs, Op.32
T:Wie rafft ich mich auf in der Nacht
T:1. Wie rafft ich mich auf in der Nacht
T:Johannes Brahms
T:August von Platen
T:9 Lieder and Songs, Op.32
T:Creative Commons copyright waiver (CC0 1.0 Universal) 
T:Creative Commons copyright waiver (CC0 1.0 Universal) 
T:Creative Commons copyright waiver (CC0 1.0 Universal) 
T:Creative Commons copyright waiver (CC0 1.0 Universal) 
T:Creative Commons copyright waiver (CC0 1.0 Universal) 
T:Creative Commons copyright waiver (CC0 1.0 Universal) 
C:Johannes Brahms
Z:August von Platen
Z:Creative Commons copyright waiver (CC0 1.0 Universal)
Z:
%%score 1 { ( 2 5 ) | ( 3 4 6 ) }
L:1/8
Q:1/4=92
M:4/4
K:Ab
V:1 treble nm="Singstimme\nVoice"
V:2 treble nm="Pianoforte"
V:5 treble 
V:3 bass 
V:4 bass 
V:6 bass 
V:1
"^Andante" z4 z2 z F | F2 D3/2 E/ F2 G3/2 A/ | F2 z2 z2 B3/2 c/ | A2 z2 z2 z3/2 c/ | %4
w: Wie|rafft ich mich  auf in der|Nacht, in der|Nacht, und|
 d2 A z/ __e/ d2 A z/ =d/ | _e2 B z/ _f/ e2 B z | =f2 c3/2 e/ (d>c) B3/2 =B/ | c2 G z z2 z ^F | %8
w: fühl- te mich für- der, mich|für- der ge- zo- gen,|fühl- te mich für- * der ge-|zo- gen, die|
 (G=d) e f e2 d c | (=Bc) _B A G2 z G | c2 c c G2 G G | A2 A A =E2 z E | F2 A c d2 B G | c8 | %14
w: Gas- * sen ver- liess ich vom|Wäch- * ter be- wacht, durch-|wan- del- te sacht in der|Nacht, in der Nacht, das|Tor mit dem go- ti- schen|Bo-|
 F2 z2 z4 | z8 | z8 | z4 z2 z!mf! c | d3 d c2 A F | c2 c c B2 z B | (BA) G F (BA) G F | G4 G2 z c | %22
w: gen.|||Der|Mühl- bach rausch- te durch|fel- si- gen Schacht, ich|lehn- * te mich ü- * ber die|Brü- cke, tief|
 d2 d d c2 c c | e2 e e =d2 z d | (fe) =d c (fe) d c | =d2 e d d2 z G | (^F=B) ^c =d =f2 _e d | %27
w: un- ter mir nahm ich der|Wo- gen in Acht, die|wall- * ten so sacht _ in der|Nacht, in der Nacht, doch|wall- * te nicht ei- ne zu-|
 =d2 =c2 z2 z e | (e_d) c B (BA) F =D | G8 | C2 z2 z4 | z4 z2 z!mf! c | d2 d d c2 A F | %33
w: rü- cke, doch|wall- * te nicht ei- * ne zu-|rü-|cke.|Es|dreh- te sich o- ben un-|
 c2 c c B2 z B | (BA) G F (BA) G F | G4 G2 z c | d2 d d c2 c c | e2 e e =d2 z d | %38
w: zäh- lig ent- facht me-|lo- * di- scher Wan- * del der|Ster- ne, mit|ih- nen der Mond in be-|ru- hig- ter Pracht, sie|
 (fe) =d c (fe) d c |!<(! =d2!<)!!>(! e!>)! d d2 z G | (^F=B) ^c =d =f2 e d | =d2 =c2 z2 z e | %42
w: fun- * kel- ten sacht _ in der|Nacht, in der Nacht, durch|täu- * schend  ent- le- ge- ne|Fer- ne durch|
 (e_d) c B (BA) F =D | G8 | C2 z2 z4 | z4 z2 z!p! c | c2 A3/2 B/ c2 =d3/2 e/ | c2 z2 z2 =d3/2 e/ | %48
w: täu- * schend  ent- le- * ge- ne|Fer-|ne.|Ich|blick- te hin- auf in der|Nacht, in der|
 c2 z2 z2 z c | d2 A z/ c/ d2 A z/ =d/ | e2 B z/ _f/ e2 B z/ =e/ | =f2 c3/2 _e/ (d>c) B3/2 =B/ | %52
w: Nacht, und|blick- te hin- un- ter, hin-|un- ter aufs  Neu- e, und|blick- te hin- un- * ter aufs|
 c2 G z z2 z!ff! ^F | (G=d) e =f e2 d c | (Ae) _f _g =e2 z d | __e2 _c A d2 __B _G | %56
w: Neu- e: O|we- * he, wie hast du die|Ta- * ge ver- bracht, o|we- he, wie hast du die|
 _c2 d A __B2 z _G | d2 d d A2 A A | =A2 A A F2 z F | _G2 B B d2 B =G |!>(! c8!>)! |!p! F2 z2 z4 | %62
w: Ta- ge ver bracht, nun|stil- le du sacht in der|Nacht, in der Nacht, im|po- chen- den Her- zen die|Reu-|e!|
 z8 | z8 | z8 | z8 | !fermata!z8 |] %67
w: |||||
V:2
 z8 | z8 | z2 F,!p!"_cresc. poco a poco"z/G,/ (A,2 B,)z/C/ | %3
 (A,2 [F,F])z/[G,G]/ ([A,A]2 [B,B])z/[Cc]/ | %4
!mf! ([Dd]>A F) z/ !>![__E__e]/ ([Dd]>A F) z/ !>![=D=d]/ | %5
 ([Ee]>B G) z/ !>![_F_f]/ ([Ee]>B G) z/ !>![=E=e]/ | %6
 ([Ff]>c =A) z/ [_E_e]/ ([Dd]>[Cc]) [B,B] z/ [=B,=B]/ | %7
 ([Cc]>G =E) z/ [_B,_B]/ ([A,A]>[G,G])[F,F]z/[^F,^F]/ | %8
 (3z [G,=D=FG][G,DFG] [G,DFG]2 (3z [G,EG][G,EG] [G,EG]2 | %9
 (3z [=B,FG][CEG] [A,CF]2 (3z [B,=D][B,D] [B,D]2 | %10
 (3z [Cc][Cc] (3[Cc][Cc][Cc] (3z [G,G][G,G] (3[G,G][G,G][G,G] | %11
 (3z [A,A][A,A] (3[A,A][A,A][A,A] (3z [=E,=E][E,E] (3[E,E][E,E][E,E] | %12
 (3z [F,F][F,F] (3[F,A,F][F,A,F][F,A,F] (3z [F,DF][F,DF] (3[F,DF][F,DF][F,DF] | %13
 (3z [G,CF][G,CF] (3[G,CF][G,CF][G,CF] (3z [G,C=E][G,CE] (3[G,CE][G,CE][G,CE] | %14
 (3z [F,F][F,F] (3[F,F][F,F][F,F] (3z [B,D_G][B,DG] (3[B,DG][B,DG][B,DG] | %15
 (3z [F,F][F,F] (3[F,F]FF (3z [D_GB][DGB] (3[DGB][DGB][DGB] | %16
 (3z!p!!<(! [CFA][CFA] (3[CFA][CFA][CFA]!<)!!>(! (3[CF=G][CFG][CFG] (3[C=EG][CEG]!>)![CEG] | %17
 (3z!<(! [A,DF][A,DF] (3[A,DF][A,DF][A,DF]!<)!!>(! (3[G,CF][G,CF][G,CF] (3[G,C=E][G,CE]!>)![G,CE] | %18
 (3([Ad]DF (3[Ad]DF) (3([Ac]CF (3[Ac]CF) | (3([Gc]CE (3[Gc]CE) (3([GB]B,E (3[GB]B,E) | %20
 (3(B,F[A,A] (3G,C[F,F]) (3(B,F[A,A] (3G,C[F,F]) | %21
!p!!>(! (3([G,C]=DG (3[G,=B,]DG) (3([G,C]=EG (3CEG)!>)! | %22
 (3([Ad]DF (3[Ad]DF)"_poco a poco cresc." (3([Ac]CF (3[Ac]CF) | %23
 (3([Be]EG (3[Be]EG) (3([B=d]=DG (3[Bd]DG) | (3(Fc[Ee]) (3(=DG[Cc]) (3(Fc[Ee]) (3(DG[Cc]) | %25
!mf! (3([=DG]=A=d (3[D^F]Ad) (3([DG]=Bd (3[DG]Bd) | z2 (3(=E^c[^F=d]) =f2 _ed | %27
 (3(=D=F=B) (3(Ec[Ge]) g2 fe | (3(FA_d)!>(! (3(Ec[DB]) (3(DF[CA] (3A,F[C=D])!>)! | %29
"_dim." (3(G,[CE]G (3G,[CE]G (3G,[C=D]G (3G,[=B,D]G) |!p! (3(G,CG (3G,CG (3CGc (3CGc) | %31
 (3(Gcg (3Gcg (3cgc' (3cgc') | %32
!>(! (([af']2!>)! [fd']))z/[ge']/!p!!>(! (([af']2!>)! [bg']))z/[c'a']/ | %33
!p!!>(! (([ge']2!>)! [ec']))z/[f=d']/!p!!>(! (([ge']2!>)! [af']))z/[bg']/ | %34
 (3(_d'df (3c'cf) (3(d'df (3c'cf) | (3(c'=dg (3=bdg) (3(c'cg (3c'cg) | %36
!p!!>(! (([af']2!>)! [fd']))z/[ge']/!p!!>(! (([af']2!>)! [bg']))z/[c'a']/ | %37
 (([bg']2"_sempre cresc." [ge']))z/[=af']/ (([bg']2 [c'=a']))z/[=d'b']/ | %38
 (3(_a'_ac' (3g'gc') (3(a'ac' (3g'gc') | (3(g'=a=d'(3^f'ad') (3(g'g!<(!=b(3d'=dg) | %40
 (3(=b=d^f (3^c'=e[f=d'])!<)!!f! =b2 bb |!mf!!<(! =b2 c'e'!<)!!f! [gg']2 f'e' | %42
 (3([ge']a[f_d'])!>(! (3([ec']f[db]) (3([db]f[ca]) (3([Af]c[A=d])!>)! | %43
 (3(Gg[ce] (3Gg[ce] (3Gg[c=d] (3Gg[=Bd]) | (3(Ggc!>(! (3Ggc) (3(CcG (3CcG)!>)! | %45
 (3(G,GC (3G,GC) z4 | (3(cc'g (3Aac (3Ggc (3Ffc) | %47
!>(! ([Ee]2!>)! [Cc])z/[=D=d]/!mf!!>(! ([Ece]2!>)! [Fdf])z/[Geg]/ | %48
!mf!!>(! ([Ece]2!>)! [Cc])z/[=D=d]/!mf!!>(! ([Ece]2!>)! [Fdf])z/[Geg]/ | %49
 ([Aa]>f d) z/ !>![__B__b]/ ([Aa]>f d) z/ !>![_c_c']/ | %50
 ([Bb]>g e) z/ !>![_c_c']/ ([Bb]>g e) z/ !>![_d_d']/ | %51
 ([cc']>=a f) z/ [ee']/ ([dd']>[cc'] [Bb]) z/ [=B=b]/ | %52
 ([cc']>g =e) z/ [Bb]/ ([Aa]>[Gg][Ff])z/[^F^f]/ | ([G=dg][A=f])(.[Ge].[Fd]) [Ge]2 [=D=B][Ec] | %54
 ([Aea][__B_g])(.[A_f].[_Ge]) [Af]2 [Ec][_Fd] | [=FA_c__e]4 [_G__Bd]4 | _c4 [_G__B]2 z2 | %57
!>(! (3z [Dd][Dd]!>)!!p! (3[Dd][Dd][Dd] (3z [A,A][A,A] (3[A,A][A,A][A,A] | %58
 (3z [=A,=A][A,A] (3[A,A][A,A][A,A] (3z [F,F][F,F] (3[F,F][F,F][F,F] | %59
"^sosten."!<(! (3z [_G,_G][G,G] (3[G,DG][G,DG][G,DG]!<)!!>(! (3[F,B,F][F,B,F][F,B,F] (3[=G,DF][G,DF][G,DF]!>)! | %60
 (3z [G,CF][G,CF] (3[G,CF][G,CF][G,CF]!>(! (3z [G,C=E][G,CE] (3[G,CE][G,CE][G,CE]!>)! | %61
!p!!<(! ([F,F]2 [A,A][CAc]!<)!!f!!>(! [DBd]2 [DB][B,_G])!>)! | %62
!<(! ([A,F][CA][Fc][Af]!<)!!f!!>(! [B_g][_Gd][DB][B,G])!>)! | %63
!<(! ([A,F]2 [A,A][B,B]!<)!!>(! [Cc]4)!>)! |!<(! ([A,F]2 [A,A][B,B]!<)!!>(! [Cc]4)!>)! | %65
 [CFAc]4 [CFA]4 |!p! !fermata![F,A,CF]8 |] %67
V:3
!p!!>(! ([F,,F,]2!>)! [D,,D,]) z!p!!>(! ([F,,F,]2!>)! [D,,D,]) z | %1
!p!!>(! ([F,,F,]2!>)! [D,,D,])z/[E,,E,]/!p!!>(! ([F,,F,]2!>)! [G,,G,])z/[A,,A,]/ | %2
!p!!>(! ([F,,F,]2!>)! [D,,D,])z/[E,,E,]/!p!!>(! ([F,,F,]2!>)! [G,,G,])z/[A,,A,]/ | %3
!p!!>(! ([F,,F,]2!>)! [D,,D,])z/[E,,E,]/!p!!>(! ([F,,F,]2!>)! [G,,G,])z/[A,,A,]/ | %4
!>(! ([F,,F,]>A,, D,)!>)!!mp! z/ !>![_G,,_G,]/ ([F,,F,]>A,, D,) z/ !>![A,,A,]/ | %5
 ([=G,,=G,]>B,, E,) z/ !>![A,,A,]/ ([G,,G,]>B,, E,) z/!f! !>![B,,B,]/ | %6
 ([=A,,=A,]>C, F,) z/!>(! [C,C]/ ([B,,B,]>!>)![_A,,_A,]) [G,,G,] z/ !>![F,,F,]/ | %7
 ([=E,,=E,]>G,, C,) z/!>(! [G,,G,]/ ([F,,F,]>[_E,,_E,])[D,,D,]!>)!z/[C,,C,]/ | %8
!p! =B,,2 (3z G,,G,, G,,2 (3z G,,G,, | G,,2 (3z C,C, G,2 z2 | C,3 z G,,3 z | A,,3 z =E,,3 z | %12
 F,,2!<(! ([D,,D,]2!<)!!>(! [B,,,B,,]2!>)! [G,,,G,,]2) | [C,,C,]4!>(! C,,4!>)! | %14
!<(! (F,,2 A,,C,!<)!!>(! D,2 B,,_G,,)!>)! |!<(! (F,,A,,C,F,!<)!!>(! _G,D,B,,_G,,)!>)! | %16
!p! (F,,2 A,,B,, C,4) | (F,,2 A,,B,, C,4) | %18
!p!!>(! ([F,,F,]2!>)! [D,,D,])z/[E,,E,]/!p!!>(! ([F,,F,]2!>)! [G,,G,])z/[A,,A,]/ | %19
!p!!>(! ([E,,E,]2!>)! [C,,C,])z/[=D,,=D,]/!p!!>(! ([E,,E,]2!>)! [F,,F,])z/[G,,G,]/ | %20
!p!!>(! ([_D,,_D,]2!>)! [A,,,A,,]2)!p!!>(! ([D,,D,]2!>)! [A,,,A,,]2) | [G,,,G,,]4 [C,,G,,]4 | %22
!p!!>(! ([F,,F,]2!>)! [D,,D,])z/[E,,E,]/!p!!>(! ([F,,F,]2!>)! [G,,G,])z/[A,,A,]/ | %23
!p!!>(! ([G,,G,]2!>)! [E,,E,])z/[F,,F,]/!p!!>(! ([G,,G,]2!>)! [=A,,=A,])z/[B,,B,]/ | %24
!p!!>(! ([_A,,_A,]2!>)! [E,,E,]2)!p!!>(! ([A,,A,]2!>)! [E,,E,]2) | %25
"^cresc." [=D,,=D,]4!<(! [G,,D,]4 | (^F,,^F,)[=D,,=D,][=B,,,=B,,]!<)!!f! [G,,,G,,]4 | %27
!mf!!<(! (G,,G,)[E,,E,][C,,C,]!<)!!f! [F,,,F,,]4 | [F,,F,]4 [F,,,F,,]4 | [G,,,G,,]8 | [C,,G,,]8- | %31
 [C,,G,,]2 z2 z4 |[K:treble]!p! (6:4:6(DADADA) (6:4:6(A,FA,FA,F) | %33
 (6:4:6(CGCGCG) (6:4:6(G,EG,EG,E) |!p!!>(! (3(B,FD!>)! (3A,FC)!p!!>(! (3(B,FD!>)! (3A,FC) | %35
 (3(G,G=D (3G,GD) (3(CG=E (3CGE) | (6:4:6(DADADA) (6:4:6(A,FA,FA,F) | %37
 (6:4:6(EBEBEB) (6:4:6(B,GB,GB,G) | (3(FcA (3EcG) (3(FcA (3EcG) | %39
 (3(=D=d=A (3CAD) (3(=B,GD (3G,DB,) |[K:bass] (3^F,=D=B, (3=D,=B,=B,, [G,,G,]4 | %41
 G,G (.[E,E].[C,C]) [F,,F,]4 | [F,F]4 F,,4 |"^dim." G,,8 |!p! [C,,C,]6 z2 | %45
"^dim." z4 (3(C,CG, (3C,CG,) |!pp!"^cresc. poco a poco" (3(C,CG, (3C,CA, (3C,CG, (3C,CF,) | %47
!mf! (3(C,CG, (3A,,A,C, (3G,,G,C, (3F,,F,C,) | (3(C,,C,B,, (3A,,A,C, (3G,,G,C, (3F,,C,C,,) | %49
"^cresc." (3([F,,F,]A,,_D, (3F,A,) [_G,,_G,] (3([F,,F,]A,,D, (3F,A,) [A,,A,] | %50
 (3([=G,,=G,]B,,E, (3G,B,) [A,,A,] (3([G,,G,]B,,E, (3G,B,) [B,,B,] | %51
 (3([=A,,=A,]C,F, (3A,C) [C,C] (3([B,,B,]F,[_A,,_A,]) (3([G,,G,]D,[F,,F,]) | %52
 (3([=E,,=E,]G,,C, (3E,G,) [G,,G,] (3([F,,F,]C,[_E,,_E,]) (3([D,,D,]A,,[C,,C,]) | %53
!f! (3z G,G, G,2 (3z G,G, G,2 | (3z A,A, A,2 (3z A,A, A,2 |!>(! [A,_C]4!>)!!>(! [_G,__B,]4!>)! | %56
!>(! [E,_G,]2!>)! [F,A,]2 [G,__B,]2 z2 | [D,,D,]3 z [A,,,A,,]3 z | [=A,,,=A,,]3 z [F,,,F,,]3 z | %59
 ([_G,,,_G,,]2 [B,,,B,,]2 [D,,D,]2 [B,,,B,,]2) | [C,,C,]4 C,,4 | %61
 (3z C,C, (3C,C,C, (3B,,B,,B,, (3D,D,D, | (3z C,C, (3C,C,C, (3B,,B,,B,, (3D,D,D, | %63
 (3z C,C, (3C,C,C, (3C,C,C, (3C,C,C, | (3z D,D, (3D,D,D, (3C,C,C, (3C,C,C, | %65
!f!!>(! (3z C,C, (3C,!>)!C,C,!>(! (3z C,C, (3C,!>)!C,C, | z2 !fermata![F,,C,]6 |] %67
V:4
 x8 | x8 | x8 | x8 | x8 | x8 | x8 | x8 | =B,,,4 C,,4 | (=D,,E,,) F,,2 G,,2 (3z G,,G,, | x8 | x8 | %12
 x8 | x8 | F,,4 F,,4 | F,,4 F,,4 | F,,4 C,,4 | F,,4 C,,4 | x8 | x8 | x8 | x8 | x8 | x8 | x8 | x8 | %26
 x8 | G,,2 x6 | x8 | x8 | x8 | x8 |[K:treble] x8 | x8 | x8 | x8 | x8 | x8 | x8 | =D2 C2 =B,2 G,2 | %40
[K:bass] ^F,2 xx x4 | G,2 x6 | x8 | x8 | x8 | x8 | x8 | x8 | x8 | x8 | x8 | x8 | x8 | %53
 [=B,,,=B,,]4 [C,,C,]4 | [C,,C,]4 [D,,D,]4 | (3D,D,D, D,2 (3D,D,D, D,2 | %56
 (3D,D,D, (3D,D,D, (.D,.__B,,.A,,._G,,) | x8 | x8 | x8 | x8 | F,,4 F,,4 | F,,4 F,,4 | F,,4 C,,4 | %64
 F,,4 C,,4 | [F,,,F,,]8 | x8 |] %67
V:5
 x8 | x8 | x8 | x8 | x8 | x8 | x8 | x8 | x8 | x8 | x8 | x8 | x8 | x8 | x8 | x8 | x8 | x8 | x8 | %19
 x8 | x8 | x8 | x8 | x8 | x8 | x8 | x4 (3(_A=BA) (3(GB=F) | =D2 E2 (3(_B_dB (3AcG) | x8 | x8 | x8 | %31
 x8 | x8 | x8 | x8 | x8 | x8 | x8 | x8 | x8 | x4 (3=f_af (3g=ef | (3=dfd (3gc[eg] (3_b_d'b (3ac'g | %42
 x8 | x8 | x8 | x8 | x8 | x8 | x8 | x8 | x8 | x8 | x8 | x8 | x8 | x8 | %56
 ([E_G]2 [FA]2) (3z D!<(!D (3DD!<)!D | x8 | x8 | x8 | x8 | x8 | x8 | x4 ([FG-]2 [=EG]2) | %64
 x4 ([FG-]2 [=EG]2) | x8 | x8 |] %67
V:6
 x8 | x8 | x8 | x8 | x8 | x8 | x8 | x8 | x8 | x8 | x8 | x8 | x8 | x8 | x8 | x8 | x8 | x8 | x8 | %19
 x8 | x8 | x8 | x8 | x8 | x8 | x8 | x8 | x8 | x8 | x8 | x8 | x8 |[K:treble] x8 | x8 | x8 | x8 | %36
 x8 | x8 | x8 | x8 |[K:bass] x2 (3=D,x=B,, x4 | x8 | x8 | x8 | x8 | x8 | x8 | x8 | x8 | x8 | x8 | %51
 x8 | x8 | x8 | x8 | x8 | x8 | x8 | x8 | x8 | x8 | x8 | x8 | x8 | x8 | x8 | x8 |] %67

